X:0424
T:The Madrigal.
M:6/8
L:1/8
Q:3/8=104 "Siciliano"
I: :: ::
Z:Jack Campin * www.campin.me.uk * 2009
K:C
G|c2c cBA|G2G G2G|A2d BAB|c2c  c2
G|c2c cBA|G2G G2G|A2d BAB|c2c  c2::
G|d2f e2c|BAB c2G|d2f e2c|BAB  cec|
  A2A cBA|G2E G2G|c2c edc|g2g Hgec|
  A2A BAB|c2c c2:|
<end>
<start>
